X:1
T: The New Brig of Glasgow
C:
R:Strathspey
Q: 128
K:Gm
M:4/4
L:1/16
|:D2|G3A B3c AF3 F4|G3A B3c dg3 g4|f3d c3B ABcB A2^F2|G3A B3c dD3 D3^F|
G3A B3c AF3 F4|G3A B3c dg3 g4|f3d c3B ABcB A2^F2|G3A B3c dD3 G2G2|
Gg3 g3a f3g f3c|dg3 g3d gaba g3d|dg3 g3a f3g f3c|d3g bag^f g4 g3G|
Gg3 g3a f3g f3c|dg3 g3d gaba g3d|df3 df3 cf3 AF3|G3A B3c dF3 G2:|
